public/new/-emoji-smiling-face-with-open-mouth-and-smiling-eyes.svg

<svg fill="none" height="20" viewBox="0 0 20 20" width="20" xmlns="http://www.w3.org/2000/svg"><path d="m20 10c0 5.5333-4.4667 10-10 10-5.53333 0-10-4.4667-10-10 0-5.53333 4.46667-10 10-10 5.5333 0 10 4.46667 10 10z" fill="#ffdd67"/><g fill="#664e27"><path d="m15.6668 12c0-.2666-.1666-.6-.6-.7-1.1666-.2333-2.8666-.4333-5.0666-.4333-2.20004 0-3.90004.2333-5.0667.4333-.43334.1-.6.4334-.6.7 0 2.4334 1.86666 4.8667 5.6667 4.8667 3.8 0 5.6666-2.4333 5.6666-4.8667z"/><path d="m8.8334 8.30067c-.63333-1.69999-1.56666-2.56666-2.5-2.56666-.93333 0-1.86667.86667-2.5 2.56666-.06667.16667.26667.46667.43333.3.6-.63333 1.33334-.89999 2.06667-.89999.73334 0 1.46667.26666 2.06667.89999.2.16667.5-.13333.43333-.3z"/><path d="m16.1332 8.30067c-.6333-1.69999-1.5667-2.56666-2.5-2.56666s-1.8667.86667-2.5 2.56666c-.0667.16667.2667.46667.4333.3.6-.63333 1.3334-.89999 2.0667-.89999.7667 0 1.4667.26666 2.0667.89999.1666.16667.5-.13333.4333-.3z"/></g><path d="m14.2333 12.1001c-.7333-.1334-2.2666-.3334-4.23331-.3334-1.96667 0-3.5.2-4.23334.3334-.43333.0666-.46666.2333-.43333.5.03333.1333.03333.3333.1.5333.03333.2.1.3.43333.2667.63334-.0667 7.66665-.0667 8.30005 0 .3333.0333.3666-.0667.4333-.2667.0333-.2.0667-.3667.1-.5333 0-.2667-.0333-.4334-.4667-.5z" fill="#fff"/><path d="m20 10c0 5.5333-4.4667 10-10 10-5.53333 0-10-4.4667-10-10 0-5.53333 4.46667-10 10-10 5.5333 0 10 4.46667 10 10z" fill="#ffdd67"/><path d="m15.6668 12c0-.2666-.1666-.6-.6-.7-1.1666-.2333-2.8666-.4333-5.0666-.4333-2.20004 0-3.90004.2333-5.0667.4333-.43334.1-.6.4334-.6.7 0 2.4334 1.86666 4.8667 5.6667 4.8667 3.8 0 5.6666-2.4333 5.6666-4.8667z" fill="#664e27"/><path d="m8.8334 8.30067c-.63333-1.69999-1.56666-2.56666-2.5-2.56666-.93333 0-1.86667.86667-2.5 2.56666-.06667.16667.26667.46667.43333.3.6-.63333 1.33334-.89999 2.06667-.89999.73334 0 1.46667.26666 2.06667.89999.2.16667.5-.13333.43333-.3z" fill="#664e27"/><path d="m16.1332 8.30067c-.6333-1.69999-1.5667-2.56666-2.5-2.56666s-1.8667.86667-2.5 2.56666c-.0667.16667.2667.46667.4333.3.6-.63333 1.3334-.89999 2.0667-.89999.7667 0 1.4667.26666 2.0667.89999.1666.16667.5-.13333.4333-.3z" fill="#664e27"/><path d="m14.2333 12.1001c-.7333-.1334-2.2666-.3334-4.23331-.3334-1.96667 0-3.5.2-4.23334.3334-.43333.0666-.46666.2333-.43333.5.03333.1333.03333.3333.1.5333.03333.2.1.2667.43333.2667h8.30005c.3333 0 .3666-.0667.4333-.2667.0333-.2.0667-.3667.1-.5333 0-.2667-.0333-.4334-.4667-.5z" fill="#fff"/></svg>

<svg width="20" height="20" viewBox="0 0 20 20" fill="none" xmlns="http://www.w3.org/2000/svg">
<path d="M20 10C20 15.5333 15.5333 20 10 20C4.46667 20 0 15.5333 0 10C0 4.46667 4.46667 0 10 0C15.5333 0 20 4.46667 20 10Z" fill="#FFDD67"/>
<path d="M15.6668 12C15.6668 11.7334 15.5002 11.4 15.0668 11.3C13.9002 11.0667 12.2002 10.8667 10.0002 10.8667C7.80016 10.8667 6.10016 11.1 4.9335 11.3C4.50016 11.4 4.3335 11.7334 4.3335 12C4.3335 14.4334 6.20016 16.8667 10.0002 16.8667C13.8002 16.8667 15.6668 14.4334 15.6668 12Z" fill="#664E27"/>
<path d="M8.8334 8.30067C8.20007 6.60068 7.26674 5.73401 6.3334 5.73401C5.40007 5.73401 4.46673 6.60068 3.8334 8.30067C3.76673 8.46734 4.10007 8.76734 4.26673 8.60067C4.86673 7.96734 5.60007 7.70068 6.3334 7.70068C7.06674 7.70068 7.80007 7.96734 8.40007 8.60067C8.60007 8.76734 8.90007 8.46734 8.8334 8.30067Z" fill="#664E27"/>
<path d="M16.1332 8.30067C15.4999 6.60068 14.5665 5.73401 13.6332 5.73401C12.6999 5.73401 11.7665 6.60068 11.1332 8.30067C11.0665 8.46734 11.3999 8.76734 11.5665 8.60067C12.1665 7.96734 12.8999 7.70068 13.6332 7.70068C14.3999 7.70068 15.0999 7.96734 15.6999 8.60067C15.8665 8.76734 16.1999 8.46734 16.1332 8.30067Z" fill="#664E27"/>
<path d="M14.2333 12.1001C13.5 11.9667 11.9667 11.7667 9.99999 11.7667C8.03332 11.7667 6.49999 11.9667 5.76665 12.1001C5.33332 12.1667 5.29999 12.3334 5.33332 12.6001C5.36665 12.7334 5.36665 12.9334 5.43332 13.1334C5.46665 13.3334 5.53332 13.4334 5.86665 13.4001C6.49999 13.3334 13.5333 13.3334 14.1667 13.4001C14.5 13.4334 14.5333 13.3334 14.6 13.1334C14.6333 12.9334 14.6667 12.7667 14.7 12.6001C14.7 12.3334 14.6667 12.1667 14.2333 12.1001Z" fill="white"/>
<path d="M20 10C20 15.5333 15.5333 20 10 20C4.46667 20 0 15.5333 0 10C0 4.46667 4.46667 0 10 0C15.5333 0 20 4.46667 20 10Z" fill="#FFDD67"/>
<path d="M15.6668 12C15.6668 11.7334 15.5002 11.4 15.0668 11.3C13.9002 11.0667 12.2002 10.8667 10.0002 10.8667C7.80016 10.8667 6.10016 11.1 4.9335 11.3C4.50016 11.4 4.3335 11.7334 4.3335 12C4.3335 14.4334 6.20016 16.8667 10.0002 16.8667C13.8002 16.8667 15.6668 14.4334 15.6668 12Z" fill="#664E27"/>
<path d="M8.8334 8.30067C8.20007 6.60068 7.26674 5.73401 6.3334 5.73401C5.40007 5.73401 4.46673 6.60068 3.8334 8.30067C3.76673 8.46734 4.10007 8.76734 4.26673 8.60067C4.86673 7.96734 5.60007 7.70068 6.3334 7.70068C7.06674 7.70068 7.80007 7.96734 8.40007 8.60067C8.60007 8.76734 8.90007 8.46734 8.8334 8.30067Z" fill="#664E27"/>
<path d="M16.1332 8.30067C15.4999 6.60068 14.5665 5.73401 13.6332 5.73401C12.6999 5.73401 11.7665 6.60068 11.1332 8.30067C11.0665 8.46734 11.3999 8.76734 11.5665 8.60067C12.1665 7.96734 12.8999 7.70068 13.6332 7.70068C14.3999 7.70068 15.0999 7.96734 15.6999 8.60067C15.8665 8.76734 16.1999 8.46734 16.1332 8.30067Z" fill="#664E27"/>
<path d="M14.2333 12.1001C13.5 11.9667 11.9667 11.7667 9.99999 11.7667C8.03332 11.7667 6.49999 11.9667 5.76665 12.1001C5.33332 12.1667 5.29999 12.3334 5.33332 12.6001C5.36665 12.7334 5.36665 12.9334 5.43332 13.1334C5.46665 13.3334 5.53332 13.4001 5.86665 13.4001H14.1667C14.5 13.4001 14.5333 13.3334 14.6 13.1334C14.6333 12.9334 14.6667 12.7667 14.7 12.6001C14.7 12.3334 14.6667 12.1667 14.2333 12.1001Z" fill="white"/>
</svg>
